X:1
T:James Gibb editions
T:Psalm 42 (Becker) - Schütz
%%score [ ( 1 2 ) ( 3 4 ) ]
L:1/8
Q:1/4=100
M:2/2
K:F
V:1 treble nm="Soprano Alto"
V:2 treble 
V:3 bass nm="Tenor Bass"
V:4 bass 
V:1
"^Cornelius Becker\n(1561-1604)""^Psalm 42, SWV 139""^Heinrich Schütz\n(1585-1672)" F4 B4 | %1
w: ~Gleich- wie|
w: |
w: so schreit|
 c2 d4 c2 | B2 c2 A4 | f4 c4 | f2 _e4 d2 | c4 B4 :| d4 c4 |[M:2/2] B2 A4 c2 | B2 A2 G4 | B4 A4 | %10
w: ein Hirsch eilt|mit Be- gier|zum Was-|ser, sich zu|fri- schen,||bens Gott liegt|mir im Sinn,|ach, wann|
w: |||||des Le-||||
w: mein See- le,|Gott zu dir,|nach Gott|mein See- le|dür- stet,|||||
 G2 F4 _E2 | D2 C2 D4 | F4 G4 | B2 G4 F2 | G8 | F8 |] %16
w: werd ich kom-|men da- hin,|daß ich|sein Ant- litz|schau-|e!|
w: ||||||
w: ||||||
V:2
 D4 F4 | F2 F4 F2 | D2 _E2 D4 | D4 F4 | F2 G4 F2 | F4 F4 :| F4 F4 |[M:2/2] D2 F4 F2 | F2 F2 E4 | %9
 G4 F4 | _E2 D4 C2 | A,2 G,2 A,4 | D4 B,4 | D2 C4 A,2 | C8 | C8 |] %16
V:3
 B,4 D4 | A,2 B,4 A,2 | G,2 G,2 ^F,4 | B,4 A,4 | B,2 B,4 B,2 | A,4 B,4 :| B,4 A,4 | %7
[M:2/2]"^2. Mein täglich Speise Tränen seind, mein Leid ich in mich fresse,\nwenn ich muß hören von mein'm Feind, Gott hab mein ganz vergessen,\nvon solchem Spott bricht mir mein Herz, drum ichs vor Gott ausschütt\nmit Schmerz, ihm meine Not zu klagen.\n\n3. Wie gerne wollt ich mit hingehn, zum Hause Gottes wallen,\ndaß ich möcht bei dem Haufen stehn, der dich, Herr, preist mit Schalle,\nzu danken in der großen G'mein mit Frohlocken dem Namen dein,\nwar meines Herzens Freude.\n\n4. Warum betrübst du dich, mein Seel, hast Unruh früh und spate?\nHarr nur auf Gott, all'm Ungefäll weiß er gar wohl zu raten,\nich bins gewiß, Gott läßt mich nicht, hilft mir mit seinem Angesicht,\ndes werd ich ihm noch danken.\n\n6. Der Trübsal Flut rauschen daher, ein Leid das ander reget,\ngleichwie auf ungestümen Meer ein Well die ander schläget.\nTäglich verspricht Gott seine Gnad, dafür lob ich ihn früh und spat,\nruf an den Gott meins Lebens.\n\n8. Warum betrübst du dich, mein Seel, hast Unruh früh und spate?\nHarr nur auf Gott, all'm Ungefäll weiß er gar wohl zu raten,\nich bins gewiß, Gott läßt mich nicht, tut Hülfe meinem Angesicht,\ndes wird ich ihm noch danken.        \n" B,2 C4 A,2 | %8
 D2 C2 C4 | D4 D4 | B,2 B,4 G,2 | ^F,2 G,2 !courtesy!^F,4 | A,4 G,4 | F,2 _E,4 F,2 | (F,4 E,4) | %15
 F,8 |] %16
V:4
 B,,4 B,,4 | F,2 B,4 F,2 | G,2 C,2 D,4 | B,,4 F,4 | D,2 _E,4 B,,2 | F,4 B,,4 :| B,,4 F,4 | %7
[M:2/2] G,2 F,4 F,2 | B,,2 F,2 C,4 | G,4 D,4 | _E,2 B,,4 C,2 | D,2 _E,2 D,4 | D,4 _E,4 | %13
 B,,2 C,4 D,2 | C,8 | F,,8 |] %16

